packages/core/src/svgs/abr.svg

<svg width="24" height="24" viewBox="0 0 24 24" fill="none" xmlns="http://www.w3.org/2000/svg">
<g clip-path="url(#clip0_31_5522)">
<path d="M0 0H24V24H0V0Z" fill="#181B1E"/>
<path d="M11.1514 6.00021C11.1514 5.58021 11.4943 5.14307 11.9228 5.14307C15.3857 5.14307 18.6385 7.41878 18.8571 11.0616V16.3802C18.8571 16.8002 18.4285 17.1431 18 17.1431C17.5714 17.1431 17.1428 16.8002 17.1428 16.3802V11.1088C16.9543 8.2545 14.7857 6.85735 12 6.85735C11.5714 6.85735 11.1514 6.42021 11.1514 6.00021ZM12.8485 18.0002C12.8485 18.4202 12.5057 18.8574 12.0771 18.8574C8.61425 18.8574 5.36139 16.5816 5.14282 12.9388V7.62021C5.14282 7.20021 5.57139 6.85735 5.99997 6.85735C6.42854 6.85735 6.85711 7.20021 6.85711 7.62021V12.8916C7.04568 15.7459 9.21425 17.1431 12 17.1431C12.4285 17.1431 12.8485 17.5802 12.8485 18.0002Z" fill="white"/>
<path d="M7.71436 5.92307C7.71436 5.49449 8.05721 5.14307 8.4815 5.14307C8.9015 5.14307 9.24436 5.49021 9.24436 5.92307V8.71735C9.86927 8.19269 10.631 7.85733 11.4399 7.75068C12.2489 7.64404 13.0715 7.77054 13.811 8.11533C14.5505 8.46011 15.1763 9.00885 15.6147 9.69704C16.0531 10.3852 16.2859 11.1843 16.2858 12.0002V18.0774C16.2858 18.5059 15.9429 18.8574 15.5186 18.8574C15.4173 18.8562 15.3172 18.8352 15.2241 18.7954C15.1309 18.7556 15.0465 18.6978 14.9757 18.6254C14.9048 18.5529 14.8489 18.4673 14.8112 18.3732C14.7735 18.2792 14.7547 18.1787 14.7558 18.0774V15.2831C14.1309 15.8077 13.3692 16.1431 12.5602 16.2497C11.7513 16.3564 10.9287 16.2299 10.1891 15.8851C9.44959 15.5403 8.82386 14.9916 8.38546 14.3034C7.94707 13.6152 7.71425 12.8162 7.71436 12.0002V5.92307ZM9.24436 12.0002C9.24663 12.7303 9.53855 13.4297 10.056 13.9448C10.5735 14.4598 11.2742 14.7485 12.0043 14.7473C12.7345 14.7462 13.4343 14.4554 13.9502 13.9387C14.466 13.422 14.7558 12.7218 14.7558 11.9916C14.7558 11.2615 14.466 10.5612 13.9502 10.0446C13.4343 9.5279 12.7345 9.23706 12.0043 9.23593C11.2742 9.23479 10.5735 9.52345 10.056 10.0385C9.53855 10.5536 9.24663 11.253 9.24436 11.9831V12.0002Z" fill="white"/>
</g>
<defs>
<clipPath id="clip0_31_5522">
<rect width="24" height="24" fill="white"/>
</clipPath>
</defs>
</svg>

<svg xmlns="http://www.w3.org/2000/svg" width="24" height="24" fill="none" viewBox="0 0 24 24"><g clip-path="url(#a)"><path fill="#181B1E" d="M0 0h24v24H0z"/><path fill="#fff" d="M11.151 6c0-.42.343-.857.772-.857 3.463 0 6.716 2.276 6.934 5.919v5.318c0 .42-.428.763-.857.763s-.857-.343-.857-.763V11.11C16.954 8.255 14.786 6.857 12 6.857c-.429 0-.849-.437-.849-.857m1.697 12c0 .42-.342.857-.77.857-3.464 0-6.717-2.275-6.935-5.918V7.62c0-.42.428-.763.857-.763s.857.343.857.763v5.272c.189 2.854 2.357 4.251 5.143 4.251.428 0 .848.437.848.857"/><path fill="#fff" d="M7.714 5.923c0-.429.343-.78.768-.78.42 0 .762.347.762.78v2.794A4.286 4.286 0 0 1 16.286 12v6.077c0 .429-.343.78-.767.78a.77.77 0 0 1-.763-.78v-2.794A4.286 4.286 0 0 1 7.714 12zM9.244 12a2.756 2.756 0 1 0 0-.017z"/></g><defs><clipPath id="a"><path fill="#fff" d="M0 0h24v24H0z"/></clipPath></defs></svg>
